X:238
T:Banquet. VWMLa.238, The
%%VWML:Anon2-3049-p157-0
F:http://www.vwml.org/record/Anon2/3049/p157
S:Anon. MS, late 18thC, Vaughan Williams Mem. Library
N:A cotillion appears to be a slow jig.
O:England;Yorkshire
Z:vmp/efdss.Simon Wilson. Reviewed PJH 2008.
M:6/8
L:1/8
Q:3/8=100
K:Bb
B2B B2B|fdB fdB|c2c c2c|ecA ecA|\
B2B B2B|g2g gab|f2e d2c|(c3 B3):|
|:F3-F2f|(f2e) (e2d)|(F3 F2)e|(e2d) d2c|\
B2B B2B|g2g gab|fdB ecA|B3 B,3:|
